X:33
T: Akkor szép a huszár
O: Felsőtárkány (Heves), Özv. Farkas Benedekné - Bugyi Mária (76), 1953.05
Q: "Tempo guisto" 1/4=110
M:4/4
L:1/4
K:C
C/C/C D/E/F/A/ | G<E F<D |  C2 C z | 
G/G/G A/B/c/e/ | d B c A | G2 G z | 
c/d/c/c/ G/A/ G | F/E/D/C/ | A<A G z | 
C/C/C D/E/F/A/ | G<E F<D |  C2 C z | 

